resources/svg/list-ul-2.svg

<svg xmlns="http://www.w3.org/2000/svg" fill="none" viewBox="0 0 14 14"><path fill="currentColor" fill-rule="evenodd" d="M0.779419 1.75C0.365205 1.75 0.0294189 2.08579 0.0294189 2.5C0.0294189 2.91421 0.365205 3.25 0.779419 3.25H1.10417C1.51838 3.25 1.85417 2.91421 1.85417 2.5C1.85417 2.08579 1.51838 1.75 1.10417 1.75H0.779419ZM4.13123 1.75C3.71701 1.75 3.38123 2.08579 3.38123 2.5C3.38123 2.91421 3.71701 3.25 4.13123 3.25H13.2206C13.6348 3.25 13.9706 2.91421 13.9706 2.5C13.9706 2.08579 13.6348 1.75 13.2206 1.75H4.13123ZM3.38123 7C3.38123 6.58579 3.71701 6.25 4.13123 6.25H13.2206C13.6348 6.25 13.9706 6.58579 13.9706 7C13.9706 7.41421 13.6348 7.75 13.2206 7.75H4.13123C3.71701 7.75 3.38123 7.41421 3.38123 7ZM0.779419 6.25C0.365205 6.25 0.0294189 6.58579 0.0294189 7C0.0294189 7.41421 0.365205 7.75 0.779419 7.75H1.10417C1.51838 7.75 1.85417 7.41421 1.85417 7C1.85417 6.58579 1.51838 6.25 1.10417 6.25H0.779419ZM3.38123 11.5C3.38123 11.0858 3.71701 10.75 4.13123 10.75H13.2206C13.6348 10.75 13.9706 11.0858 13.9706 11.5C13.9706 11.9142 13.6348 12.25 13.2206 12.25H4.13123C3.71701 12.25 3.38123 11.9142 3.38123 11.5ZM0.779419 10.75C0.365205 10.75 0.0294189 11.0858 0.0294189 11.5C0.0294189 11.9142 0.365205 12.25 0.779419 12.25H1.10417C1.51838 12.25 1.85417 11.9142 1.85417 11.5C1.85417 11.0858 1.51838 10.75 1.10417 10.75H0.779419Z" clip-rule="evenodd"></path></svg>

<svg xmlns="http://www.w3.org/2000/svg" fill="none" viewBox="0 0 14 14"><path fill="currentColor" fill-rule="evenodd" d="M.78 1.75a.75.75 0 0 0 0 1.5h.324a.75.75 0 0 0 0-1.5H.78Zm3.351 0a.75.75 0 1 0 0 1.5h9.09a.75.75 0 0 0 0-1.5H4.13ZM3.381 7a.75.75 0 0 1 .75-.75h9.09a.75.75 0 0 1 0 1.5H4.13A.75.75 0 0 1 3.38 7ZM.78 6.25a.75.75 0 0 0 0 1.5h.325a.75.75 0 0 0 0-1.5H.78Zm2.602 5.25a.75.75 0 0 1 .75-.75h9.09a.75.75 0 0 1 0 1.5H4.13a.75.75 0 0 1-.75-.75ZM.78 10.75a.75.75 0 0 0 0 1.5h.325a.75.75 0 0 0 0-1.5H.78Z" clip-rule="evenodd"/></svg>
